icons/1_Primary/Mailcow.svg

<svg xmlns="http://www.w3.org/2000/svg" width="1024" height="1024" fill="none">
   <g clip-path="url(#a)">
      <path fill="#D3B69A" d="M512 1024c282.77 0 512-229.23 512-512S794.77 0 512 0 0 229.23 0 512s229.23 512 512 512Z"/>
      <path fill="#fff" d="M889.1 606.6s-13.8 81.8-57.6 81.1c-14.1.6-24-3.5-30.7-8.3-10.1 10.7-23.3 19.9-36.5 27.6l-.1.1c-10.8 6.2-21.5 11.3-30.3 15.2-3.1 1.3-5.9 2.5-8.4 3.5v-43.9c6.4.2 12.3-.1 17.8-1 22.6-3.5 37.6-14.7 43.7-20.1-4.3-13.2-10.9-52 55-58.1-2.7.6-9.3 3.5-15.1 18.3 19.5 1.6 51.5 4.4 62.2-14.4Zm-242.4-16.1c-.5.5-1 1-1.4 1.3l-.7.6c-13.8 13.3-29.3 24.5-46.2 33.4-3.4 1.8-6.9 3.5-10.4 5-1.7.8-3.5 1.6-5.3 2.3-3.6 1.5-7.2 2.9-10.9 4.1-.5.2-1 .3-1.4.5L719.3 763c.9-2.8 1.4-5.7 1.4-8.6V479.2L700 495.8c-8.4 35.4-26.6 67.9-52.5 93.9l-.8.8ZM563.8 640c-18.6 5.6-37.9 8.5-57.4 8.5-21.1 0-42-3.3-62-9.9L290.6 766.8l-2.2 1.7c5 8.5 14.1 13.8 24 13.8h380.4c9.9 0 19-5.3 24-13.8l-2.1-1.6L563.8 640ZM316.1 507.8c-.5-1.5-.9-3.1-1.4-4.7l-30.2-24v275.2c0 2.9.5 5.8 1.4 8.6l152-126.7c-58.2-21.3-103.7-69.1-121.8-128.4Zm388.2-36.7c-.6 5.3-1.4 10.6-2.5 15.9l14.1-11.3-11.6-4.6Zm-414.6 4.2 22.5 17.9c-1.8-7.9-3.1-15.8-3.9-23.6l-18.6 5.7Zm385.6-119.6c15.8 28.5 24.2 60.9 24.2 93.6 0 51.1-19.7 99.1-55.5 135.5-.6.6-2.1 2.2-2.8 2.8l-.6.6c-13.4 12.9-28.5 23.8-44.9 32.4-3.3 1.7-6.7 3.4-10.1 4.9-1.7.8-3.4 1.5-5.2 2.2-3.4 1.4-7 2.8-10.5 4-1.7.6-3.6 1.2-5.4 1.8-18.8 5.9-38.3 8.9-58.2 8.9-21.4 0-42.5-3.5-62.7-10.4-58.3-20-103.9-67.1-122-126-3.8-12.4-6.4-25.4-7.6-38.4-.6-6.1-.9-12.3-.9-18.3 0-6.6.3-13.2 1-19.8 2.5-24.8 9.7-48.5 21.4-70.5 2.2-4.1 4.5-8.1 6.9-12 5.9-9.4 12.6-18.3 19.9-26.5l.4-.4.7-.8c2.7-3 5.6-5.9 8.4-8.7 9-8.7 18.9-16.6 29.4-23.4 7-4.6 14.4-8.7 22-12.3 17.7-8.4 36.5-14.1 55.9-16.8 17-2.4 34.3-2.5 51.3-.4 18.9 2.4 37.3 7.5 54.7 15.3 7.4 3.3 14.6 7.1 21.4 11.3 11 6.7 21.4 14.6 30.9 23.4 11.5 10.7 21.7 22.7 30.3 35.8 2.8 3.9 5.3 8 7.6 12.2Zm-32 89.7c0-80.5-59-148.5-137.1-158.2-6.3-.8-12.7-1.2-19.1-1.2-29.7 0-58.7 8.6-83.6 24.8-24.3 15.8-43.9 38-56.6 64.3-10.6 22-16 45.7-16 70.3 0 40.7 15 79.5 42.4 109.1 29.9 32.4 70.3 50.3 113.9 50.3 55.7 0 107.6-30.7 135.5-80 5.9-10.5 10.7-21.7 14.1-33.4 4.2-14.9 6.5-30.4 6.5-46Zm48.9 11.9h2.2v-.1h-2.2v.1Zm-77.8 63.6 1.7 3.1c-27.1 46.2-76.5 74.9-129.1 74.9-41.4 0-79.9-16.8-108.5-47.3v-4.2l.8-.3-.8-.9c1.9-41.9 56.4-75.9 121.8-75.9 50.4 0 96.2 20.4 114.1 50.6Zm-170.3 14.8c0-10.7-8.7-19.3-19.3-19.3-10.6 0-19.3 8.7-19.3 19.3 0 10.7 8.7 19.3 19.3 19.3 10.7 0 19.3-8.7 19.3-19.3Zm151.6 0c0-10.7-8.7-19.3-19.3-19.3-10.7 0-19.3 8.7-19.3 19.3 0 10.7 8.7 19.3 19.3 19.3 10.6 0 19.3-8.7 19.3-19.3ZM487 291.9c6.1 0 12.3.4 18.4 1.1 75.2 9.4 132 74.9 132 152.4 0 15.1-2.2 30-6.4 44.5v.1c-.5 1.7-1.1 3.6-1.8 5.8l-.5 1.4c-.7 1.9-1.4 3.8-2.1 5.6l-.5 1.2c-.7 1.7-1.4 3.4-2.1 5l-.4 1c-.8 1.7-1.6 3.5-2.6 5.4-.4.9-.9 1.8-1.4 2.7-19-32.1-66.5-53.6-119.1-53.6-33.9 0-65.8 8.6-89.9 24.3-22.9 14.9-36.1 34.5-37.7 55.5-1.2-4.1-2.1-8.3-2.7-12.3 0-.3-.1-.7-.2-1-.1-.3-.1-.6-.2-1-8.6-37.9-14.6-66.3-21.7-107.8-.8-6.6-1.2-12.3-1.4-17.9 0-.8-.1-1.6-.1-2.4-.1-1.4-.1-2.8-.1-4.3 0-2.2.1-4.5.3-7.3 1.3-3.5 2.8-7 4.4-10.4l1.1-2.3.1-.3 1.2-2.4.6-1.2c.2-.4.3-.7.5-1 .1-.2.2-.3.3-.5l.2-.4c12.2-22.7 30-42.1 51.4-56 24-15.7 51.8-23.9 80.4-23.9Zm-34.8 104.9c0-11.9-9.6-21.5-21.5-21.5s-21.5 9.6-21.5 21.5 9.6 21.5 21.5 21.5c5.7 0 11.1-2.2 15.2-6.3 4-4 6.3-9.4 6.3-15.2Zm105.4 0c0 11.9 9.6 21.5 21.5 21.5s21.5-9.6 21.5-21.5-9.7-21.5-21.5-21.5-21.5 9.7-21.5 21.5Zm27.8 1.4c4.1 0 7.5-3.3 7.5-7.5 0-4.1-3.4-7.5-7.5-7.5s-7.5 3.4-7.5 7.5c0 4.2 3.3 7.5 7.5 7.5Zm-147.1 0c4.1 0 7.5-3.3 7.5-7.5 0-4.1-3.3-7.5-7.5-7.5-4.1 0-7.5 3.4-7.5 7.5 0 4.2 3.3 7.5 7.5 7.5Zm146.4-189.6c-3 6.5-16.4 33-40.4 44.6 14.9 2.9 29.4 7.4 43.1 13.5 6.4-11.8 17.4-38.7-2.7-58.1Zm-163.9 60.1c13.9-6.6 28.6-11.6 43.7-14.8-25.1-11.1-39-38.7-42.1-45.4-20.9 20.3-8.6 48.1-1.6 60.2Zm191.3 11c10.7 6.7 20.8 14.4 30 22.9l.1.1c14.1-9.1 35.8-18.6 59.7-12.8l1 .2-.1 1c0 .3-4 27.3-29 49 2.3 3.5 4.5 7.1 6.6 10.8 28.2-20.2 40.6-48.3 37-83.5-6.8-2.4-67.8-24-105.3 12.3Zm-284.6-20.6c-19.9 1.4-36.2 7.2-39.5 8.5-3.9 37.5 10.4 66.8 42.4 87.1 1.9-3.6 4-7.1 6.1-10.5-29.3-22.2-33.8-52.7-33.9-53l-.1-1 1-.2c25.8-6.2 48.9 5 64 15.7 8.8-8.5 18.4-16.2 28.6-23-20.3-22-48.4-25-68.6-23.6Z"/>
   </g>
   <defs>
      <clipPath id="a">
         <path fill="#fff" d="M0 0h1024v1024H0z"/>
      </clipPath>
   </defs>
</svg>

<svg width="1024" height="1024" viewBox="0 0 1024 1024" fill="none" xmlns="http://www.w3.org/2000/svg">
<g clip-path="url(#clip0_2_2736)">
<path d="M512 1024C794.77 1024 1024 794.77 1024 512C1024 229.23 794.77 0 512 0C229.23 0 0 229.23 0 512C0 794.77 229.23 1024 512 1024Z" fill="#D3B69A"/>
<path d="M889.1 606.6C889.1 606.6 875.3 688.4 831.5 687.7C817.4 688.3 807.5 684.2 800.8 679.4C790.7 690.1 777.5 699.3 764.3 707L764.2 707.1C753.4 713.3 742.7 718.4 733.9 722.3C730.8 723.6 728 724.8 725.5 725.8V681.9C731.9 682.1 737.8 681.8 743.3 680.9C765.9 677.4 780.9 666.2 787 660.8C782.7 647.6 776.1 608.8 842 602.7C839.3 603.3 832.7 606.2 826.9 621C846.4 622.6 878.4 625.4 889.1 606.6ZM646.7 590.5C646.2 591 645.7 591.5 645.3 591.8L644.6 592.4C630.8 605.7 615.3 616.9 598.4 625.8C595 627.6 591.5 629.3 588 630.8C586.3 631.6 584.5 632.4 582.7 633.1C579.1 634.6 575.5 636 571.8 637.2C571.3 637.4 570.8 637.5 570.4 637.7L719.3 763C720.2 760.2 720.7 757.3 720.7 754.4V479.2L700 495.8C691.6 531.2 673.4 563.7 647.5 589.7L646.7 590.5ZM563.8 640C545.2 645.6 525.9 648.5 506.4 648.5C485.3 648.5 464.4 645.2 444.4 638.6L290.6 766.8L288.4 768.5C293.4 777 302.5 782.3 312.4 782.3H692.8C702.7 782.3 711.8 777 716.8 768.5L714.7 766.9L563.8 640ZM316.1 507.8C315.6 506.3 315.2 504.7 314.7 503.1L284.5 479.1V754.3C284.5 757.2 285 760.1 285.9 762.9L437.9 636.2C379.7 614.9 334.2 567.1 316.1 507.8ZM704.3 471.1C703.7 476.4 702.9 481.7 701.8 487L715.9 475.7L704.3 471.1ZM289.7 475.3L312.2 493.2C310.4 485.3 309.1 477.4 308.3 469.6L289.7 475.3ZM675.3 355.7C691.1 384.2 699.5 416.6 699.5 449.3C699.5 500.4 679.8 548.4 644 584.8C643.4 585.4 641.9 587 641.2 587.6L640.6 588.2C627.2 601.1 612.1 612 595.7 620.6C592.4 622.3 589 624 585.6 625.5C583.9 626.3 582.2 627 580.4 627.7C577 629.1 573.4 630.5 569.9 631.7C568.2 632.3 566.3 632.9 564.5 633.5C545.7 639.4 526.2 642.4 506.3 642.4C484.9 642.4 463.8 638.9 443.6 632C385.3 612 339.7 564.9 321.6 506C317.8 493.6 315.2 480.6 314 467.6C313.4 461.5 313.1 455.3 313.1 449.3C313.1 442.7 313.4 436.1 314.1 429.5C316.6 404.7 323.8 381 335.5 359C337.7 354.9 340 350.9 342.4 347C348.3 337.6 355 328.7 362.3 320.5L362.7 320.1L363.4 319.3C366.1 316.3 369 313.4 371.8 310.6C380.8 301.9 390.7 294 401.2 287.2C408.2 282.6 415.6 278.5 423.2 274.9C440.9 266.5 459.7 260.8 479.1 258.1C496.1 255.7 513.4 255.6 530.4 257.7C549.3 260.1 567.7 265.2 585.1 273C592.5 276.3 599.7 280.1 606.5 284.3C617.5 291 627.9 298.9 637.4 307.7C648.9 318.4 659.1 330.4 667.7 343.5C670.5 347.4 673 351.5 675.3 355.7ZM643.3 445.4C643.3 364.9 584.3 296.9 506.2 287.2C499.9 286.4 493.5 286 487.1 286C457.4 286 428.4 294.6 403.5 310.8C379.2 326.6 359.6 348.8 346.9 375.1C336.3 397.1 330.9 420.8 330.9 445.4C330.9 486.1 345.9 524.9 373.3 554.5C403.2 586.9 443.6 604.8 487.2 604.8C542.9 604.8 594.8 574.1 622.7 524.8C628.6 514.3 633.4 503.1 636.8 491.4C641 476.5 643.3 461 643.3 445.4ZM692.2 457.3H694.4V457.2H692.2V457.3ZM614.4 520.9L616.1 524C589 570.2 539.6 598.9 487 598.9C445.6 598.9 407.1 582.1 378.5 551.6V547.4L379.3 547.1L378.5 546.2C380.4 504.3 434.9 470.3 500.3 470.3C550.7 470.3 596.5 490.7 614.4 520.9ZM444.1 535.7C444.1 525 435.4 516.4 424.8 516.4C414.2 516.4 405.5 525.1 405.5 535.7C405.5 546.4 414.2 555 424.8 555C435.5 555 444.1 546.3 444.1 535.7ZM595.7 535.7C595.7 525 587 516.4 576.4 516.4C565.7 516.4 557.1 525.1 557.1 535.7C557.1 546.4 565.8 555 576.4 555C587 555 595.7 546.3 595.7 535.7ZM487 291.9C493.1 291.9 499.3 292.3 505.4 293C580.6 302.4 637.4 367.9 637.4 445.4C637.4 460.5 635.2 475.4 631 489.9V490C630.5 491.7 629.9 493.6 629.2 495.8L628.7 497.2C628 499.1 627.3 501 626.6 502.8L626.1 504C625.4 505.7 624.7 507.4 624 509L623.6 510C622.8 511.7 622 513.5 621 515.4C620.6 516.3 620.1 517.2 619.6 518.1C600.6 486 553.1 464.5 500.5 464.5C466.6 464.5 434.7 473.1 410.6 488.8C387.7 503.7 374.5 523.3 372.9 544.3C371.7 540.2 370.8 536 370.2 532C370.2 531.7 370.1 531.3 370 531C369.9 530.7 369.9 530.4 369.8 530C361.2 492.1 355.2 463.7 348.1 422.2C347.3 415.6 346.9 409.9 346.7 404.3C346.7 403.5 346.6 402.7 346.6 401.9C346.5 400.5 346.5 399.1 346.5 397.6C346.5 395.4 346.6 393.1 346.8 390.3C348.1 386.8 349.6 383.3 351.2 379.9L352.3 377.6L352.4 377.3L353.6 374.9L354.2 373.7C354.4 373.3 354.5 373 354.7 372.7C354.8 372.5 354.9 372.4 355 372.2L355.2 371.8C367.4 349.1 385.2 329.7 406.6 315.8C430.6 300.1 458.4 291.9 487 291.9ZM452.2 396.8C452.2 384.9 442.6 375.3 430.7 375.3C418.8 375.3 409.2 384.9 409.2 396.8C409.2 408.7 418.8 418.3 430.7 418.3C436.4 418.3 441.8 416.1 445.9 412C449.9 408 452.2 402.6 452.2 396.8ZM557.6 396.8C557.6 408.7 567.2 418.3 579.1 418.3C591 418.3 600.6 408.7 600.6 396.8C600.6 384.9 590.9 375.3 579.1 375.3C567.3 375.3 557.6 385 557.6 396.8ZM585.4 398.2C589.5 398.2 592.9 394.9 592.9 390.7C592.9 386.6 589.5 383.2 585.4 383.2C581.3 383.2 577.9 386.6 577.9 390.7C577.9 394.9 581.2 398.2 585.4 398.2ZM438.3 398.2C442.4 398.2 445.8 394.9 445.8 390.7C445.8 386.6 442.5 383.2 438.3 383.2C434.2 383.2 430.8 386.6 430.8 390.7C430.8 394.9 434.1 398.2 438.3 398.2ZM584.7 208.6C581.7 215.1 568.3 241.6 544.3 253.2C559.2 256.1 573.7 260.6 587.4 266.7C593.8 254.9 604.8 228 584.7 208.6ZM420.8 268.7C434.7 262.1 449.4 257.1 464.5 253.9C439.4 242.8 425.5 215.2 422.4 208.5C401.5 228.8 413.8 256.6 420.8 268.7ZM612.1 279.7C622.8 286.4 632.9 294.1 642.1 302.6L642.2 302.7C656.3 293.6 678 284.1 701.9 289.9L702.9 290.1L702.8 291.1C702.8 291.4 698.8 318.4 673.8 340.1C676.1 343.6 678.3 347.2 680.4 350.9C708.6 330.7 721 302.6 717.4 267.4C710.6 265 649.6 243.4 612.1 279.7ZM327.5 259.1C307.6 260.5 291.3 266.3 288 267.6C284.1 305.1 298.4 334.4 330.4 354.7C332.3 351.1 334.4 347.6 336.5 344.2C307.2 322 302.7 291.5 302.6 291.2L302.5 290.2L303.5 290C329.3 283.8 352.4 295 367.5 305.7C376.3 297.2 385.9 289.5 396.1 282.7C375.8 260.7 347.7 257.7 327.5 259.1Z" fill="white"/>
</g>
<defs>
<clipPath id="clip0_2_2736">
<rect width="1024" height="1024" fill="white"/>
</clipPath>
</defs>
</svg>
